; generated by Slic3r Prusa Edition 1.40.0+linux64 on 2018-07-17 at 14:19:59

; 

; external perimeters extrusion width = 2.00mm
; perimeters extrusion width = 2.00mm
; infill extrusion width = 2.00mm
; solid infill extrusion width = 2.00mm
; top infill extrusion width = 2.00mm
; first layer extrusion width = 3.50mm

M107
M190 S40 ; set bed temperature and wait for it to be reached
M109 S260   ; Set and wait for extruder temperature.
G90                         ; Explicitly force absolute positioning in case it was not reset previously.
G28                         ; Home all axes
G0 X0 Y0 Z0.15 F9000        ; Move to the front-left part of the bed.
G92 E0                      ; Zero the extruder.
G1 X40 E25 F500             ; Extrude a fat line of filament to prime and clean the nozzle.
G92 E0                      ; Zero the extruder.
G1 E-1 F500                 ; Retract 1 mm.
G1 X80 F9000                ; Sweep right to cut any strings.
; Filament gcode
G21 ; set units to millimeters
G90 ; use absolute coordinates
M82 ; use absolute distances for extrusion
G92 E0
G1 Z0.500 F1500.000
G1 X161.691 Y114.452
G1 F600
G1 X162.593 Y114.776 E0.87869
G1 X162.828 Y114.906 E1.12476
G1 X163.116 Y115.130 E1.46003
G1 X163.499 Y115.311 E1.84838
G1 X163.757 Y115.500 E2.14119
G1 X165.196 Y117.033 E4.06929
G1 X165.333 Y117.228 E4.28756
G1 X165.781 Y118.104 E5.18960
G1 X166.187 Y118.995 E6.08707
G1 X166.250 Y119.200 E6.28382
G1 X166.486 Y120.639 E7.62058
G1 X166.549 Y121.549 E8.45734
G1 X166.540 Y131.025 E17.14545
G1 X166.556 Y132.310 E18.32315
G1 X166.432 Y133.996 E19.87321
G1 X166.358 Y134.282 E20.14367
G1 X165.680 Y135.763 E21.63767
G1 X165.602 Y135.899 E21.78103
G1 X164.843 Y136.977 E22.99048
G1 X164.350 Y137.579 E23.70362
G1 X164.174 Y137.748 E23.92669
G1 X163.076 Y138.549 E25.17280
G1 X161.295 Y139.780 E27.15843
G1 X161.016 Y140.703 E28.04186
G1 X160.503 Y141.681 E29.05492
G1 X160.223 Y142.620 E29.95351
G1 X160.150 Y143.007 E30.31396
G1 X159.961 Y143.404 E30.71787
G1 X159.569 Y143.866 E31.27312
G1 X159.468 Y144.217 E31.60816
G1 X159.280 Y144.578 E31.98112
G1 X159.209 Y144.869 E32.25547
G1 X159.014 Y145.237 E32.63697
G1 X158.552 Y145.752 E33.27141
G1 X158.408 Y146.148 E33.65761
G1 X158.215 Y146.489 E34.01650
G1 X157.091 Y148.025 E35.76212
G1 X156.447 Y149.213 E37.00113
G1 X155.615 Y150.213 E38.19335
G1 X155.527 Y150.400 E38.38332
G1 X155.363 Y150.634 E38.64505
G1 X154.025 Y151.992 E40.39269
G1 X153.626 Y152.569 E41.03610
G1 X153.452 Y152.748 E41.26465
G1 X153.284 Y152.968 E41.51866
G1 X153.113 Y153.135 E41.73746
G1 X152.917 Y153.280 E41.96163
G1 X152.664 Y153.600 E42.33485
G1 X151.931 Y154.292 E43.25986
G1 X151.581 Y154.685 E43.74166
G1 X150.346 Y155.638 E45.17214
G1 X150.193 Y155.827 E45.39501
G1 X148.739 Y157.216 E47.23925
G1 X148.118 Y157.583 E47.90033
G1 X147.677 Y157.947 E48.42418
G1 X146.495 Y158.583 E49.65505
G1 X146.273 Y158.785 E49.93011
G1 X144.696 Y159.858 E51.67895
G1 X144.118 Y160.116 E52.25968
G1 X143.356 Y160.769 E53.17956
G1 X142.923 Y160.968 E53.61619
G1 X142.314 Y161.060 E54.18111
G1 X141.555 Y161.689 E55.08488
G1 X141.081 Y161.884 E55.55425
G1 X140.171 Y161.969 E56.39270
G1 X139.042 Y162.594 E57.57616
G1 X138.667 Y162.701 E57.93299
G1 X138.157 Y162.726 E58.40133
G1 X137.614 Y162.906 E58.92581
G1 X136.457 Y163.561 E60.14463
G1 X135.984 Y163.672 E60.58982
G1 X135.337 Y163.637 E61.18467
G1 X134.258 Y163.888 E62.20007
G1 X133.848 Y163.939 E62.57894
G1 X132.474 Y164.522 E63.94718
G1 X131.972 Y164.575 E64.40984
G1 X131.547 Y164.493 E64.80703
G1 X129.614 Y164.693 E66.58809
G1 X129.218 Y164.693 E66.95133
G1 X127.071 Y164.788 E68.92225
G1 X126.188 Y164.800 E69.73112
G1 X123.898 Y164.782 E71.83096
G1 X121.258 Y164.679 E74.25298
G1 X119.991 Y164.539 E75.42178
G1 X118.795 Y164.336 E76.53486
G1 X117.876 Y164.130 E77.39768
G1 X116.969 Y163.875 E78.26202
G1 X116.546 Y163.822 E78.65249
G1 X115.885 Y163.660 E79.27688
G1 X115.169 Y163.527 E79.94375
G1 X113.966 Y163.090 E81.11738
G1 X113.102 Y162.811 E81.95019
G1 X111.990 Y162.515 E83.00515
G1 X111.504 Y162.424 E83.45873
G1 X111.136 Y162.259 E83.82864
G1 X110.963 Y162.125 E84.02888
G1 X109.865 Y161.553 E85.16401
G1 X109.733 Y161.511 E85.29112
G1 X108.313 Y160.844 E86.72943
G1 X108.010 Y160.664 E87.05259
G1 X106.274 Y159.801 E88.82997
G1 X106.003 Y159.617 E89.13001
G1 X105.700 Y159.477 E89.43602
G1 X105.254 Y159.165 E89.93547
G1 X104.734 Y158.876 E90.48063
G1 X104.522 Y158.694 E90.73683
G1 X104.328 Y158.581 E90.94226
G1 X103.431 Y157.885 E91.98334
G1 X103.129 Y157.728 E92.29558
G1 X102.930 Y157.585 E92.52006
G1 X102.410 Y157.085 E93.18146
G1 X101.961 Y156.852 E93.64502
G1 X101.746 Y156.693 E93.89048
G1 X101.486 Y156.429 E94.23003
G1 X100.796 Y155.892 E95.03167
G1 X99.774 Y154.982 E96.28618
G1 X98.639 Y153.884 E97.73456
G1 X97.609 Y152.823 E99.08980
G1 X96.737 Y151.849 E100.28862
G1 X96.281 Y151.279 E100.95826
G1 X95.967 Y150.941 E101.38145
G1 X95.081 Y149.635 E102.82741
G1 X94.010 Y148.354 E104.35870
G1 X93.037 Y146.606 E106.19346
G1 X92.144 Y145.265 E107.67011
G1 X91.949 Y144.866 E108.07775
G1 X91.809 Y144.432 E108.49557
G1 X91.229 Y143.578 E109.44171
G1 X91.100 Y143.275 E109.74389
G1 X90.879 Y142.461 E110.51751
G1 X90.322 Y141.467 E111.56167
G1 X90.223 Y141.184 E111.83677
G1 X90.147 Y140.704 E112.28234
G1 X89.810 Y140.053 E112.95466
G1 X89.703 Y139.707 E113.28664
G1 X89.318 Y139.096 E113.94899
G1 X89.185 Y138.668 E114.35974
G1 X89.156 Y137.912 E115.05287
G1 X89.071 Y137.438 E115.49445
G1 X88.942 Y137.033 E115.88463
G1 X88.870 Y136.705 E116.19244
G1 X88.452 Y135.681 E117.20645
G1 X88.389 Y135.325 E117.53807
G1 X88.404 Y134.940 E117.89101
G1 X88.247 Y134.239 E118.54967
G1 X88.082 Y132.945 E119.74544
G1 X88.061 Y132.462 E120.18879
G1 X87.960 Y131.815 E120.78926
G1 X87.902 Y131.245 E121.31437
G1 X87.579 Y129.536 E122.90917
G1 X87.590 Y129.164 E123.25030
G1 X87.630 Y129.010 E123.39584
G1 X87.579 Y127.076 E125.17000
G1 X87.621 Y125.468 E126.64459
G1 X87.607 Y125.188 E126.90153
G1 X87.652 Y124.585 E127.45633
G1 X87.623 Y124.447 E127.58533
G1 X87.631 Y124.061 E127.93912
G1 X87.932 Y122.850 E129.08310
G1 X88.030 Y121.984 E129.88249
G1 X88.053 Y121.607 E130.22926
G1 X88.102 Y121.298 E130.51540
G1 X88.125 Y120.741 E131.02724
G1 X88.213 Y120.258 E131.47682
G1 X88.344 Y119.169 E132.48272
G1 X88.519 Y118.488 E133.12697
G1 X88.522 Y118.187 E133.40334
G1 X88.615 Y117.804 E133.76486
G1 X88.926 Y117.192 E134.39391
G1 X89.094 Y116.561 E134.99285
G1 X89.177 Y116.065 E135.45389
G1 X89.438 Y115.124 E136.34918
G1 X89.765 Y114.416 E137.06439
G1 X89.858 Y114.013 E137.44403
G1 X90.501 Y112.101 E139.29292
G1 X90.802 Y111.529 E139.88610
G1 X91.031 Y110.583 E140.77853
G1 X91.786 Y109.291 E142.15023
G1 X91.906 Y108.840 E142.57810
G1 X92.159 Y108.424 E143.02435
G1 X92.478 Y108.132 E143.42069
G1 X92.608 Y107.919 E143.64947
G1 X92.783 Y107.733 E143.88392
G1 X93.114 Y106.885 E144.71873
G1 X93.352 Y106.548 E145.09603
G1 X93.704 Y106.242 E145.52400
G1 X94.056 Y105.682 E146.13096
G1 X94.524 Y105.143 E146.78513
G1 X94.980 Y104.254 E147.70134
G1 X95.174 Y104.003 E147.99178
G1 X95.308 Y103.884 E148.15621
G1 X95.799 Y103.269 E148.87812
G1 X96.054 Y102.894 E149.29351
G1 X96.712 Y102.187 E150.17917
G1 X96.933 Y101.882 E150.52451
G1 X97.616 Y101.191 E151.41534
G1 X97.740 Y101.022 E151.60758
G1 X100.144 Y98.626 E154.71925
G1 X100.258 Y98.556 E154.84247
G1 X100.952 Y97.872 E155.73554
G1 X101.259 Y97.678 E156.06844
G1 X101.906 Y97.090 E156.86998
G1 X102.521 Y96.704 E157.53542
G1 X102.645 Y96.544 E157.72136
G1 X102.928 Y96.309 E158.05802
G1 X104.068 Y95.720 E159.23456
G1 X104.378 Y95.393 E159.64706
G1 X104.535 Y95.263 E159.83447
G1 X105.309 Y94.767 E160.67736
G1 X105.499 Y94.556 E160.93785
G1 X105.845 Y94.323 E161.31987
G1 X106.378 Y94.130 E161.83967
G1 X107.153 Y93.440 E162.79080
G1 X107.629 Y93.214 E163.27464
G1 X107.892 Y93.066 E163.55131
G1 X108.307 Y92.974 E163.94044
G1 X108.802 Y92.512 E164.56130
G1 X109.325 Y92.278 E165.08634
G1 X110.201 Y92.185 E165.89404
G1 X111.008 Y91.590 E166.81334
G1 X111.484 Y91.423 E167.27580
G1 X112.169 Y91.392 E167.90484
G1 X113.596 Y90.961 E169.27085
G1 X114.190 Y90.717 E169.85975
G1 X115.314 Y90.369 E170.93890
G1 X116.006 Y90.186 E171.59488
G1 X116.944 Y89.719 E172.55602
G1 X117.440 Y89.635 E173.01722
G1 X118.062 Y89.715 E173.59217
G1 X119.090 Y89.532 E174.54952
G1 X119.578 Y89.506 E174.99684
G1 X119.999 Y89.444 E175.38693
G1 X120.414 Y89.421 E175.76854
G1 X120.955 Y89.316 E176.27382
G1 X121.776 Y89.230 E177.03070
G1 X123.377 Y88.947 E178.52160
G1 X124.054 Y88.991 E179.14311
G1 X125.985 Y88.976 E180.91377
G1 X127.983 Y89.035 E182.74612
G1 X128.737 Y89.132 E183.44366
G1 X129.103 Y89.152 E183.77887
G1 X129.927 Y89.346 E184.55523
G1 X131.631 Y89.517 E186.12543
G1 X132.374 Y89.558 E186.80834
G1 X132.997 Y89.699 E187.39355
G1 X133.809 Y89.830 E188.14767
G1 X134.435 Y90.001 E188.74250
G1 X134.589 Y90.015 E188.88440
G1 X134.856 Y90.082 E189.13687
G1 X135.495 Y90.344 E189.77016
G1 X136.501 Y90.541 E190.71021
G1 X137.816 Y90.899 E191.95964
G1 X137.975 Y90.927 E192.10724
G1 X138.303 Y91.060 E192.43190
G1 X138.647 Y91.291 E192.81152
G1 X139.525 Y91.583 E193.66047
G1 X140.629 Y92.018 E194.74850
G1 X141.102 Y92.289 E195.24790
G1 X142.190 Y92.665 E196.30362
G1 X142.431 Y92.794 E196.55415
G1 X142.602 Y92.925 E196.75189
G1 X142.799 Y93.030 E196.95630
G1 X143.110 Y93.253 E197.30689
G1 X143.986 Y93.584 E198.16571
G1 X144.231 Y93.727 E198.42602
G1 X144.510 Y93.959 E198.75851
G1 X144.922 Y94.249 E199.22040
G1 X146.975 Y95.448 E201.40033
G1 X147.397 Y95.772 E201.88810
G1 X147.881 Y96.192 E202.47533
G1 X148.648 Y96.768 E203.35489
G1 X149.673 Y97.463 E204.49012
G1 X150.535 Y98.216 E205.53925
G1 X150.718 Y98.354 E205.74989
G1 X151.692 Y99.245 E206.96021
G1 X152.922 Y100.461 E208.54608
G1 X153.790 Y101.386 E209.70907
G1 X153.910 Y101.542 E209.88965
G1 X154.511 Y102.200 E210.70646
G1 X155.177 Y103.069 E211.71026
G1 X155.456 Y103.329 E212.05975
G1 X155.641 Y103.580 E212.34596
G1 X155.824 Y103.955 E212.72831
G1 X156.607 Y104.790 E213.77831
G1 X156.780 Y105.064 E214.07472
G1 X156.898 Y105.365 E214.37186
G1 X157.494 Y106.203 E215.31392
G1 X157.664 Y106.403 E215.55484
G1 X157.986 Y106.993 E216.17057
G1 X158.331 Y107.378 E216.64483
G1 X158.502 Y107.667 E216.95299
G1 X158.664 Y108.130 E217.40248
G1 X159.326 Y109.514 E218.80916
G1 X159.554 Y109.883 E219.20704
G1 X160.249 Y111.390 E220.72843
G1 X160.318 Y111.601 E220.93187
G1 X160.746 Y112.487 E221.83416
G1 X161.193 Y113.114 E222.54027
G1 X161.586 Y114.171 E223.57381
G92 E0
G1 X158.740 Y117.420 F1500.000
G1 F600
G1 X159.947 Y117.487 E1.10836
G1 X161.038 Y117.880 E2.17087
G1 X161.300 Y118.083 E2.47498
G1 X161.580 Y118.216 E2.75949
G1 X162.432 Y119.124 E3.90099
G1 X162.694 Y119.636 E4.42811
G1 X162.908 Y120.109 E4.90405
G1 X163.056 Y120.988 E5.72180
G1 X163.102 Y121.587 E6.27195
G1 X163.094 Y131.033 E14.93312
G1 X163.108 Y132.302 E16.09664
G1 X163.033 Y133.266 E16.98246
G1 X162.646 Y134.111 E17.83448
G1 X162.095 Y134.893 E18.71218
G1 X161.874 Y135.160 E19.03005
G1 X160.362 Y136.235 E20.73112
G1 X158.960 Y136.427 E22.02866
G1 X158.263 Y137.760 E23.40750
G1 X158.201 Y138.186 E23.80256
G1 X157.965 Y138.733 E24.34912
G1 X157.757 Y139.307 E24.90893
G1 X157.733 Y139.543 E25.12569
G1 X157.295 Y140.376 E25.98850
G1 X157.083 Y141.088 E26.66988
G1 X156.977 Y141.235 E26.83610
G1 X156.890 Y141.697 E27.26675
G1 X156.463 Y142.201 E27.87303
G1 X156.301 Y142.762 E28.40847
G1 X156.125 Y142.981 E28.66585
G1 X156.017 Y143.417 E29.07787
G1 X155.543 Y143.947 E29.72930
G1 X155.345 Y144.488 E30.25755
G1 X155.197 Y144.656 E30.46349
G1 X155.136 Y144.863 E30.66093
G1 X154.580 Y145.625 E31.52549
G1 X154.389 Y145.808 E31.76824
G1 X153.572 Y147.288 E33.31822
G1 X152.684 Y148.352 E34.58909
G1 X152.600 Y148.528 E34.76766
G1 X151.884 Y149.254 E35.70280
G1 X151.728 Y149.341 E35.86677
G1 X150.766 Y150.584 E37.30807
G1 X150.003 Y151.369 E38.31154
G1 X149.132 Y152.183 E39.40380
G1 X149.089 Y152.255 E39.48160
G1 X147.736 Y153.300 E41.04842
G1 X147.572 Y153.565 E41.33418
G1 X146.779 Y154.322 E42.33962
G1 X146.590 Y154.384 E42.52173
G1 X145.638 Y155.138 E43.63561
G1 X144.255 Y155.873 E45.07108
G1 X144.032 Y156.141 E45.39109
G1 X143.160 Y156.734 E46.35803
G1 X142.445 Y157.011 E47.06062
G1 X141.675 Y157.671 E47.99074
G1 X141.146 Y157.751 E48.48165
G1 X141.016 Y157.833 E48.62215
G1 X140.717 Y157.907 E48.90467
G1 X139.962 Y158.533 E49.80322
G1 X139.104 Y158.621 E50.59451
G1 X137.899 Y159.288 E51.85695
G1 X137.552 Y159.305 E52.17560
G1 X136.214 Y159.738 E53.46472
G1 X135.417 Y160.190 E54.30509
G1 X134.981 Y160.166 E54.70476
G1 X133.734 Y160.470 E55.88193
G1 X133.219 Y160.480 E56.35405
G1 X131.859 Y161.044 E57.70421
G1 X131.394 Y160.955 E58.13781
G1 X130.573 Y161.139 E58.90926
G1 X129.518 Y161.247 E59.88187
G1 X129.067 Y161.247 E60.29560
G1 X127.854 Y161.314 E61.40920
G1 X126.157 Y161.354 E62.96509
G1 X123.974 Y161.336 E64.96690
G1 X121.438 Y161.236 E67.29398
G1 X120.421 Y161.119 E68.23249
G1 X119.412 Y160.944 E69.17125
G1 X118.679 Y160.775 E69.86130
G1 X117.643 Y160.485 E70.84788
G1 X117.110 Y160.419 E71.33963
G1 X116.665 Y160.300 E71.76188
G1 X116.024 Y160.181 E72.35952
G1 X115.080 Y159.828 E73.28408
G1 X114.128 Y159.517 E74.20201
G1 X113.364 Y159.316 E74.92587
G1 X113.227 Y159.240 E75.07043
G1 X112.751 Y159.151 E75.51392
G1 X112.290 Y158.795 E76.04804
G1 X111.898 Y158.732 E76.41193
G1 X111.273 Y158.395 E77.06341
G1 X111.016 Y158.306 E77.31302
G1 X109.926 Y157.794 E78.41679
G1 X109.682 Y157.634 E78.68381
G1 X108.118 Y156.867 E80.28126
G1 X107.957 Y156.724 E80.47877
G1 X107.528 Y156.525 E80.91275
G1 X107.090 Y156.106 E81.46848
G1 X106.602 Y155.939 E81.94052
G1 X106.349 Y155.723 E82.24655
G1 X106.170 Y155.648 E82.42420
G1 X105.296 Y154.970 E83.43811
G1 X105.048 Y154.841 E83.69450
G1 X104.440 Y154.256 E84.46831
G1 X103.914 Y153.983 E85.01180
G1 X103.812 Y153.879 E85.14521
G1 X102.984 Y153.224 E86.11245
G1 X102.043 Y152.382 E87.27016
G1 X101.156 Y151.527 E88.39997
G1 X100.207 Y150.552 E89.64773
G1 X99.391 Y149.645 E90.76627
G1 X98.582 Y148.655 E91.93844
G1 X97.697 Y147.348 E93.38521
G1 X97.517 Y147.178 E93.61240
G1 X96.904 Y146.444 E94.48971
G1 X96.333 Y145.454 E95.53685
G1 X95.972 Y144.771 E96.24558
G1 X95.240 Y143.692 E97.44107
G1 X95.188 Y143.513 E97.61152
G1 X95.092 Y143.384 E97.75937
G1 X94.937 Y142.903 E98.22267
G1 X94.366 Y142.062 E99.15430
G1 X94.296 Y141.732 E99.46354
G1 X94.221 Y141.610 E99.59533
G1 X94.083 Y141.127 E100.05544
G1 X93.553 Y140.184 E101.04700
G1 X93.531 Y140.041 E101.17997
G1 X93.327 Y139.352 E101.83800
G1 X93.087 Y138.887 E102.31867
G1 X93.046 Y138.545 E102.63441
G1 X92.602 Y137.843 E103.39583
G1 X92.591 Y137.541 E103.67267
G1 X92.423 Y136.606 E104.54361
G1 X92.298 Y136.216 E104.91929
G1 X92.258 Y135.888 E105.22232
G1 X91.854 Y134.897 E106.20338
G1 X91.865 Y134.597 E106.47846
G1 X91.656 Y133.718 E107.30707
G1 X91.513 Y132.599 E108.34073
G1 X91.508 Y132.180 E108.72513
G1 X91.445 Y131.799 E109.07887
G1 X91.438 Y131.502 E109.35177
G1 X91.365 Y131.234 E109.60670
G1 X91.317 Y130.753 E110.04964
G1 X91.072 Y129.459 E111.25673
G1 X91.108 Y129.318 E111.39039
G1 X91.040 Y127.999 E112.60167
G1 X91.025 Y127.105 E113.42142
G1 X91.071 Y125.458 E114.93172
G1 X91.060 Y125.232 E115.13884
G1 X91.157 Y124.514 E115.80379
G1 X91.118 Y124.325 E115.98060
G1 X91.337 Y123.449 E116.80805
G1 X91.413 Y122.687 E117.51017
G1 X91.473 Y122.375 E117.80172
G1 X91.480 Y121.998 E118.14731
G1 X91.542 Y121.608 E118.50940
G1 X91.552 Y121.157 E118.92337
G1 X91.631 Y120.724 E119.32678
G1 X91.742 Y119.774 E120.20362
G1 X91.961 Y119.035 E120.91016
G1 X91.963 Y118.823 E121.10449
G1 X92.301 Y118.158 E121.78870
G1 X92.369 Y117.652 E122.25736
G1 X92.479 Y117.277 E122.61567
G1 X92.537 Y116.845 E123.01455
G1 X92.696 Y116.271 E123.56091
G1 X93.145 Y115.344 E124.50563
G1 X93.206 Y114.868 E124.94531
G1 X93.580 Y113.755 E126.02155
G1 X93.699 Y113.625 E126.18297
G1 X93.737 Y113.450 E126.34746
G1 X93.952 Y113.162 E126.67679
G1 X94.204 Y112.121 E127.65967
G1 X94.479 Y111.857 E128.00833
G1 X94.558 Y111.526 E128.32053
G1 X94.830 Y111.252 E128.67487
G1 X95.042 Y110.458 E129.42800
G1 X95.406 Y110.125 E129.88104
